lib/brands/logos/aha.svg

<svg xmlns="http://www.w3.org/2000/svg" fill="none" aria-hidden="true" viewBox="0 0 157 76"><g id="Aha"><g id="Union"><path fill="#0173CF" d="M89.5023 29.3595C85.8346 25.6919 78.3247 24.2947 69.4177 30.4074C69.4177 30.4074 69.4177 16.6101 69.243 11.196C69.243 10.3228 68.5444 10.3228 68.5444 10.3228C67.377 10.5506 66.386 10.7459 65.5177 10.917L65.5147 10.9176C61.0603 11.7954 59.8331 12.0372 54.5725 12.7679C54.5725 12.7679 53.8739 12.7679 54.3979 13.1172C55.4458 20.8017 55.7951 28.3116 55.4458 64.8132C55.4458 64.8132 55.4458 64.9878 55.6204 65.1625C55.6204 65.3371 55.7951 65.3371 55.9697 65.3371L69.9416 65.1625C69.9416 65.1625 70.1162 65.1625 70.2909 64.9878C70.4655 64.9878 70.4655 64.8132 70.4655 64.6385C69.9416 54.5089 69.767 50.8413 69.767 38.2666C70.0835 38.1479 70.3911 38.0202 70.6959 37.8937C71.7361 37.4619 72.7428 37.044 73.9585 37.044C78.1795 37.044 78.1567 40.1453 77.9927 62.4426L77.9754 64.8132C77.9754 64.9878 77.9754 65.1625 78.1501 65.3371C78.3247 65.5118 78.4994 65.5118 78.674 65.5118C79.5075 65.5118 80.9376 65.472 82.4328 65.4304C84.0707 65.3849 85.7869 65.3371 86.8825 65.3371C87.4734 65.3371 88.3906 65.3779 89.3385 65.4201C90.3518 65.4652 91.4001 65.5118 92.122 65.5118C92.2966 65.5118 92.4713 65.5118 92.6459 65.3371C92.8206 65.1625 92.8206 64.9878 92.8206 64.8132C92.3181 55.8311 92.3126 49.3114 92.3084 44.4333C92.3011 35.748 92.2982 32.2673 89.5023 29.3595Z"/><path fill="#0173CF" fill-rule="evenodd" d="M17.8969 64.8132L20.5166 53.1117L34.3139 53.2864L36.9336 65.1625C36.9336 65.5118 37.2829 65.6864 37.6322 65.6864C38.2753 65.6864 39.4364 65.6494 40.6897 65.6095C42.1593 65.5626 43.756 65.5118 44.7928 65.5118H52.128C52.3027 65.5118 52.4773 65.5118 52.652 65.3371C52.8266 65.1625 52.8266 64.9878 52.8266 64.8132L36.5843 11.3707C36.5843 11.3707 36.235 10.4974 35.3618 10.6721C33.766 10.9496 31.8947 11.2547 29.9887 11.5654C27.0966 12.0369 24.1245 12.5214 21.9138 12.9425C20.8659 13.2918 20.5166 14.1651 20.5166 14.1651L3.92499 64.4639C3.92499 64.6385 3.92499 64.8132 4.09964 64.9878C4.09964 65.1625 4.44893 65.3371 4.62358 65.3371H17.1983C17.5476 65.3371 17.8969 65.1625 17.8969 64.8132ZM30.3863 34.8781C31.0801 37.9688 31.7106 40.7774 32.2181 42.8074H23.311C24.5335 38.4412 26.9786 29.1848 28.0265 24.644C28.8371 27.9762 29.6476 31.5872 30.3863 34.8781Z" clip-rule="evenodd"/><path fill="#0173CF" fill-rule="evenodd" d="M117.271 61.6693C114.652 63.5905 109.587 66.2102 105.395 66.2102C98.9332 66.2102 94.9163 61.4947 94.9163 54.5087C94.9163 43.6805 107.666 40.5369 116.747 39.3143C116.922 37.5678 116.922 35.6467 112.381 35.6467C107.84 35.6467 103.998 37.0439 99.9811 38.6157C99.8593 38.7375 99.6526 38.6895 99.4795 38.6492C99.4043 38.6317 99.3354 38.6157 99.2825 38.6157C99.1079 38.4411 98.9332 38.2664 98.9332 37.9171L99.2825 29.534C99.2825 29.1847 99.4571 29.01 99.8064 28.8354C108.015 26.3903 121.987 24.4692 127.75 29.8833C131.352 33.1416 131.248 37.2418 131.078 44.0028L131.069 44.3791C130.894 54.5087 131.069 57.3031 131.593 64.813C131.593 64.9877 131.593 65.1623 131.418 65.337C131.243 65.5116 131.069 65.5116 130.894 65.5116L117.97 65.6863C117.795 65.6863 117.621 65.6863 117.446 65.5116C117.271 65.337 117.271 65.1623 117.271 64.9877V61.6693ZM116.922 47.1735C116.795 47.1868 116.666 47.2002 116.535 47.2137C113.224 47.5553 108.539 48.0388 108.539 52.2383C108.539 56.0806 112.73 57.3031 116.922 54.6834V47.1735Z" clip-rule="evenodd"/><path fill="#0173CF" d="M140.326 47.3481C139.976 47.3481 139.627 46.9988 139.627 46.6495C138.754 27.6128 138.579 25.517 137.531 13.6409C137.531 13.2916 137.706 12.9423 138.23 12.7676L152.202 10.4972C152.376 10.4972 152.726 10.4972 152.9 10.6718C153.075 10.8465 153.075 11.0211 153.075 11.3704C152.202 19.9282 151.328 36.1705 151.154 46.4748C151.154 46.8241 150.805 47.1734 150.455 47.1734L140.326 47.3481Z"/><path fill="#0173CF" d="M137.887 63.5624C137.881 63.504 137.881 63.4456 137.881 63.3872C137.881 61.9744 137.902 60.5402 137.923 59.1662L137.923 59.1619C137.937 58.2335 137.95 57.3326 137.956 56.4844C137.949 55.6014 137.927 54.8121 137.881 54.1595C137.881 54.0395 137.881 53.9194 137.938 53.7993C137.925 53.365 137.907 52.9628 137.881 52.5987C137.881 52.4219 137.881 52.245 138.058 52.0682C138.235 51.8913 138.411 51.8913 138.588 51.8913C142.126 52.245 148.316 52.0682 151.145 51.7145C151.322 51.7145 151.499 51.7145 151.676 51.8913C151.853 52.0682 151.853 52.245 151.853 52.4219C151.853 52.8903 151.85 53.354 151.847 53.8125C151.853 53.8699 151.853 53.9274 151.853 53.9849V64.8131C151.853 64.9878 151.853 65.1624 151.678 65.337C151.503 65.5117 151.329 65.5117 151.154 65.5117C146.089 65.337 142.946 65.337 138.579 65.6863C138.405 65.6863 138.23 65.6863 138.056 65.5117C137.881 65.337 137.881 65.1624 137.881 64.9877C137.881 64.5162 137.883 64.0399 137.887 63.5624Z"/></g></g></svg>

<svg xmlns="http://www.w3.org/2000/svg" fill="none" aria-hidden="true" viewBox="0 0 157 76"><path fill="#0173CF" d="M89.502 29.36c-3.667-3.668-11.177-5.065-20.084 1.047 0 0 0-13.797-.175-19.211 0-.873-.698-.873-.698-.873-1.168.228-2.159.423-3.027.594h-.003c-4.455.878-5.682 1.12-10.942 1.85 0 0-.699 0-.175.35 1.048 7.685 1.397 15.195 1.048 51.696 0 0 0 .175.175.35 0 .174.174.174.349.174l13.972-.175s.174 0 .349-.174c.175 0 .175-.175.175-.35-.524-10.13-.699-13.797-.699-26.371.317-.12.624-.247.929-.373 1.04-.432 2.047-.85 3.263-.85 4.22 0 4.198 3.101 4.034 25.399l-.017 2.37c0 .175 0 .35.174.524.175.175.35.175.524.175.834 0 2.264-.04 3.759-.082 1.638-.045 3.354-.093 4.45-.093.59 0 1.508.04 2.456.083 1.013.045 2.061.092 2.783.092.175 0 .35 0 .524-.175.175-.175.175-.35.175-.524-.503-8.982-.508-15.502-.513-20.38-.007-8.685-.01-12.166-2.806-15.073Z"/><path fill="#0173CF" fill-rule="evenodd" d="m17.897 64.813 2.62-11.701 13.797.174 2.62 11.876c0 .35.349.524.698.524.643 0 1.804-.037 3.058-.077 1.47-.046 3.066-.097 4.103-.097h7.335c.175 0 .35 0 .524-.175.175-.175.175-.35.175-.524L36.584 11.371s-.349-.874-1.222-.699c-1.596.278-3.467.583-5.373.893-2.892.472-5.864.956-8.075 1.378-1.048.349-1.397 1.222-1.397 1.222L3.925 64.464c0 .174 0 .35.175.524 0 .174.349.35.524.35h12.574c.35 0 .699-.175.699-.525Zm12.49-29.935c.693 3.09 1.324 5.9 1.831 7.93h-8.907c1.223-4.367 3.668-13.623 4.716-18.164.81 3.332 1.62 6.943 2.36 10.234Zm86.884 26.792c-2.619 1.92-7.684 4.54-11.876 4.54-6.462 0-10.479-4.715-10.479-11.701 0-10.828 12.75-13.972 21.831-15.195.175-1.746.175-3.667-4.366-3.667-4.541 0-8.383 1.397-12.4 2.969-.122.121-.328.073-.501.033a.98.98 0 0 0-.197-.033c-.175-.175-.35-.35-.35-.699l.35-8.383c0-.35.174-.524.523-.699 8.209-2.445 22.181-4.366 27.944 1.048 3.602 3.259 3.498 7.359 3.328 14.12l-.009.376c-.175 10.13 0 12.924.524 20.434 0 .175 0 .35-.175.524-.175.175-.349.175-.524.175l-12.924.174c-.175 0-.349 0-.524-.174-.175-.175-.175-.35-.175-.524v-3.319Zm-.349-14.497-.387.04c-3.311.342-7.996.826-7.996 5.025 0 3.843 4.192 5.065 8.383 2.445v-7.51Z" clip-rule="evenodd"/><path fill="#0173CF" d="M140.326 47.348c-.35 0-.699-.35-.699-.698-.873-19.037-1.048-21.133-2.096-33.01 0-.348.175-.698.699-.872l13.972-2.27c.174 0 .524 0 .698.174.175.175.175.35.175.698-.873 8.558-1.746 24.8-1.921 35.105 0 .35-.349.698-.699.698l-10.129.175Zm-2.439 16.214c-.006-.058-.006-.116-.006-.175 0-1.413.021-2.847.042-4.22v-.005c.014-.928.027-1.83.033-2.678a37.843 37.843 0 0 0-.075-2.325c0-.12 0-.24.057-.36a29.465 29.465 0 0 0-.057-1.2c0-.177 0-.354.177-.53.177-.178.354-.178.53-.178 3.538.354 9.728.177 12.557-.177.177 0 .354 0 .531.177.177.177.177.354.177.53 0 .47-.003.933-.006 1.392.006.057.006.114.006.172v10.828c0 .175 0 .35-.175.524-.174.175-.349.175-.524.175-5.065-.175-8.208-.175-12.574.174-.175 0-.35 0-.524-.174-.175-.175-.175-.35-.175-.524 0-.472.002-.948.006-1.426Z"/></svg>
